X:228
T:Untitled
M:6/8
L:1/8
R:jig
N:Learned from The Northern Fiddler
N:Kira and I play this after King of the Pipers
K:G
|:DBB Dcc|DBB c2e|dBG FGA|BGB AFD|\
DBB Dcc|DBB c2e|dBG FGA|BGG G3:|
|:GBd efg|fed cAF|G2G g2g|afd cAF|\
DBB Dcc|DBB c2d|dBG FGA|BGG G3:|
